tools/download-figma-icons/icons/outlined-medium/book.svg

<svg width="24" height="24" viewBox="0 0 24 24" fill="none" xmlns="http://www.w3.org/2000/svg">
<path d="M12.0172 18.9442C11.8222 18.9442 11.6273 18.8917 11.4473 18.7942C10.9149 18.4943 8.98775 17.5045 6.57319 17.5045C4.48107 17.5045 2.56892 18.2318 1.6166 18.6668C1.25667 18.8317 0.851739 18.8017 0.5218 18.5843C0.199359 18.3743 0.00439453 18.0219 0.00439453 17.6395V3.39956C0.00439453 3.00963 0.199359 2.6572 0.529298 2.45473C1.21917 2.01981 3.16132 1 6.18326 1C8.98025 1 11.0574 1.86984 11.9722 2.33476C12.7896 1.86234 14.6567 1 17.4312 1C20.4382 1 22.6128 2.00482 23.4076 2.43224C23.775 2.6272 24 3.00963 24 3.42206V17.6095C24 17.9994 23.7975 18.3593 23.4676 18.5618C23.1302 18.7717 22.7102 18.7867 22.3503 18.6068C21.533 18.1944 19.8533 17.5045 17.8211 17.5045C15.3616 17.5045 13.1495 18.5168 12.5271 18.8242C12.3696 18.9067 12.1897 18.9442 12.0172 18.9442ZM6.57319 16.0048C9.15272 16.0048 11.2448 16.9796 12.0247 17.3995C12.8945 16.9871 15.2266 16.0048 17.8211 16.0048C19.7858 16.0048 21.458 16.5672 22.5003 17.0246V3.64702C21.7654 3.27958 19.9058 2.49973 17.4312 2.49973C14.7467 2.49973 13.0445 3.42956 12.5871 3.7145C12.2422 3.93196 11.7997 3.94696 11.4398 3.752C10.8999 3.45955 8.91276 2.49973 6.18326 2.49973C3.75371 2.49973 2.134 3.25709 1.50412 3.61702V17.0771C2.66641 16.6046 4.53357 16.0048 6.57319 16.0048Z" fill="black"/>
<path d="M23.2502 22.3859C23.1152 22.3859 22.9727 22.3484 22.8452 22.2659C22.8152 22.2434 20.6406 20.8861 17.8212 20.8861C15.3616 20.8861 13.1495 21.8984 12.5271 22.2059C12.1897 22.3784 11.7848 22.3634 11.4473 22.1759C10.9149 21.8759 8.98777 20.8861 6.57321 20.8861C3.70874 20.8861 1.14421 22.2734 1.11421 22.2884C0.754278 22.4908 0.296862 22.3559 0.0943989 21.9884C-0.108064 21.6285 0.0269112 21.1711 0.386845 20.9686C0.506823 20.9011 3.31131 19.3789 6.56571 19.3789C9.14524 19.3789 11.2374 20.3537 12.0172 20.7737C12.8871 20.3612 15.2191 19.3789 17.8137 19.3789C21.0981 19.3789 23.5501 20.9311 23.6476 20.9911C23.9925 21.2161 24.0975 21.681 23.8725 22.0259C23.7301 22.2509 23.4901 22.3709 23.2427 22.3709L23.2502 22.3859Z" fill="black"/>
<path d="M12.0023 18.5773C11.5899 18.5773 11.2524 18.2399 11.2524 17.8275V3.28014C11.2524 2.86771 11.5899 2.53027 12.0023 2.53027C12.4147 2.53027 12.7522 2.86771 12.7522 3.28014V17.8275C12.7522 18.2399 12.4147 18.5773 12.0023 18.5773Z" fill="black"/>
</svg>

<svg xmlns="http://www.w3.org/2000/svg" width="24" height="24" fill="none" viewBox="0 0 24 24"><path fill="currentColor" d="M12.017 18.944c-.195 0-.39-.052-.57-.15-.532-.3-2.46-1.29-4.874-1.29-2.092 0-4.004.728-4.956 1.163a1.12 1.12 0 0 1-1.095-.083 1.13 1.13 0 0 1-.518-.944V3.4c0-.39.195-.743.525-.945C1.22 2.02 3.161 1 6.183 1c2.797 0 4.874.87 5.79 1.335C12.79 1.862 14.656 1 17.43 1c3.007 0 5.182 1.005 5.977 1.432.367.195.592.578.592.99V17.61c0 .39-.203.75-.532.952a1.14 1.14 0 0 1-1.118.045c-.817-.413-2.497-1.102-4.529-1.102-2.46 0-4.672 1.012-5.294 1.32-.157.082-.337.12-.51.12m-5.444-2.94c2.58 0 4.672.976 5.452 1.395.87-.412 3.202-1.394 5.796-1.394 1.965 0 3.637.562 4.68 1.02V3.647C21.764 3.28 19.905 2.5 17.43 2.5c-2.684 0-4.387.93-4.844 1.215a1.14 1.14 0 0 1-1.147.037C10.9 3.46 8.913 2.5 6.183 2.5c-2.43 0-4.049.757-4.679 1.117v13.46c1.162-.472 3.03-1.072 5.07-1.072m16.676 6.381a.75.75 0 0 1-.405-.12c-.03-.023-2.204-1.38-5.024-1.38-2.46 0-4.672 1.012-5.294 1.32a1.15 1.15 0 0 1-1.08-.03c-.532-.3-2.46-1.29-4.874-1.29-2.864 0-5.429 1.387-5.459 1.402a.75.75 0 0 1-1.02-.3.75.75 0 0 1 .293-1.02c.12-.067 2.924-1.59 6.179-1.59 2.58 0 4.671.976 5.451 1.396.87-.413 3.202-1.395 5.797-1.395 3.284 0 5.736 1.552 5.834 1.612a.751.751 0 0 1-.405 1.38z"/><path fill="currentColor" d="M12.002 18.577a.75.75 0 0 1-.75-.75V3.28c0-.412.338-.75.75-.75.413 0 .75.338.75.75v14.548c0 .412-.337.75-.75.75"/></svg>
